markup/sourceimages/icon15.svg

<svg xmlns="http://www.w3.org/2000/svg" width="21" height="29"><path fill-rule="evenodd" fill="#0D1B27" d="M21 14.731l-3.242 1.898-.416 2.021 3.46 7.495-3.612.049L14.852 29l-3.402-7.369-.95.877-.95-.877L6.148 29l-2.339-2.806-3.611-.049 3.46-7.495-.416-2.021L0 14.731l1.529-3.477L0 7.776l3.242-1.897.769-3.73 3.717.407L10.5 0l2.772 2.556 3.718-.407.768 3.729L21 7.776l-1.529 3.478L21 14.731zM10.5 4.416c-3.699 0-6.708 3.068-6.708 6.838s3.009 6.837 6.708 6.837c3.699 0 6.708-3.067 6.708-6.837 0-3.77-3.009-6.838-6.708-6.838zm0 11.976c-2.78 0-5.041-2.305-5.041-5.138 0-2.834 2.261-5.139 5.041-5.139 2.78 0 5.041 2.305 5.041 5.139 0 2.833-2.261 5.138-5.041 5.138z"/></svg>

<svg 
 xmlns="http://www.w3.org/2000/svg"
 xmlns:xlink="http://www.w3.org/1999/xlink"
 width="21px" height="29px">
<path fill-rule="evenodd"  fill="rgb(13, 27, 39)"
 d="M21.000,14.731 L17.758,16.629 L17.342,18.650 L20.802,26.145 L17.190,26.194 L14.852,29.000 L11.450,21.631 L10.500,22.508 L9.550,21.631 L6.148,29.000 L3.809,26.194 L0.198,26.145 L3.658,18.650 L3.242,16.629 L-0.000,14.731 L1.529,11.254 L-0.000,7.776 L3.242,5.879 L4.011,2.149 L7.728,2.556 L10.500,-0.000 L13.272,2.556 L16.990,2.149 L17.758,5.878 L21.000,7.776 L19.471,11.254 L21.000,14.731 ZM10.500,4.416 C6.801,4.416 3.792,7.484 3.792,11.254 C3.792,15.024 6.801,18.091 10.500,18.091 C14.199,18.091 17.208,15.024 17.208,11.254 C17.208,7.484 14.199,4.416 10.500,4.416 ZM10.500,16.392 C7.720,16.392 5.459,14.087 5.459,11.254 C5.459,8.420 7.720,6.115 10.500,6.115 C13.280,6.115 15.541,8.420 15.541,11.254 C15.541,14.087 13.280,16.392 10.500,16.392 Z"/>
</svg>
